X:296
T:B296-  A Lovely Lass to  Friar Came
Q:1/4=120
L:1/4
M:C|
K:G
(A/B/)|cBAG/A/|AFGA/B/|cB/B/AG|(F G/A/)G||G|\
Gddd|eddd|edd(c/B/)|B2AB/c/|\
d2GG/G/|(A/G/) (A/B/)GA/B/|cBAG|(FG/A/)G|]

